X: 54
T:Olde Tyme Quadrille
% Nottingham Music Database
S:Bob McQuillen June 1975, via PR
M:4/4
L:1/4
K:D
F/2G/2|"D"A/2B/2d/2e/2 dA|"G"BA "D"AF/2G/2|"D"A/2B/2d/2e/2 fd|"A"c3E/2F/2|
"Em7"G/2A/2G/2F/2 Ed|"A"cE EE/2F/2|"Em"G/2A/2B/2d/2 "A"cB|"G"B2 "D"AF/2G/2|
"D"A/2B/2d/2e/2 dA|"G"BA "D"AF/2G/2|"D"A/2B/2d/2e/2 fd|"G"cB Bc/2d/2|
"A"e/2f/2e/2d/2 cB/2c/2|"D"d/2e/2f/2d/2 AF/2A/2|"G"Bd "A7"c/2d/2e/2c/2|\
"D"d3d/2c/2||
"Bm"B/2c/2B/2c/2 df|"Em"gf "F#7"f/2e/2d/2c/2|"Bm"B/2c/2d/2e/2 fd|f3e/2f/2|\
"Em"g/2a/2g/2f/2 eg|
"Bm"f/2g/2f/2d/2 Bd|"G#/dim"cB "G"_B=B|"F#7"c2 d3/2c/2|"Bm"B/2c/2B/2c/2 df|\
"Em"gf "F#7"f/2e/2d/2c/2|
"Bm"B/2c/2d/2c/2 Bf|"Em"e3g/2f/2|"Em"eB "F#7"Bf/2e/2|"Bm"dB Bc/2d/2|\
"C#/dim"cg "F#7"f/2e/2d/2c/2|"Bm"B3||<end>
<start>
